icons/mcp-16.svg

<svg width="16" height="16" viewBox="0 0 16 16" fill="none" xmlns="http://www.w3.org/2000/svg">
<g clip-path="url(#clip0_10274_6)">
<rect width="16" height="16" fill="white"/>
<path d="M5.51978 1.1199C6.91721 -0.277543 9.18286 -0.277488 10.5803 1.1199C11.3938 1.93347 11.7316 3.04096 11.5979 4.10037C12.6577 3.96626 13.7664 4.30612 14.5803 5.1199C15.9775 6.51736 15.9776 8.78307 14.5803 10.1804L11.2883 13.4734C11.1907 13.571 11.1907 13.7293 11.2883 13.8269L12.1311 14.6697C12.4235 14.9625 12.4235 15.4374 12.1311 15.7303C11.8383 16.023 11.3635 16.0228 11.0706 15.7303L10.2268 14.8875C9.54376 14.2041 9.54375 13.0962 10.2268 12.4129L13.5198 9.1199C14.3313 8.30831 14.3312 6.99212 13.5198 6.18045C12.7081 5.36899 11.3919 5.3689 10.5803 6.18045L7.73072 9.03006C7.43788 9.32288 6.96307 9.32277 6.67017 9.03006C6.37735 8.73716 6.37732 8.26238 6.67017 7.96951L9.51978 5.1199C10.3314 4.30828 10.3313 2.99214 9.51978 2.18045C8.7081 1.36885 7.39197 1.36879 6.58033 2.18045L1.78052 6.98025C1.48769 7.27307 1.01288 7.27297 0.719975 6.98025C0.42719 6.68736 0.427136 6.21257 0.719975 5.9197L5.51978 1.1199Z" fill="black"/>
<path d="M7.51978 3.1199C7.81265 2.82714 8.28746 2.82714 8.58033 3.1199C8.87299 3.41277 8.87305 3.88761 8.58033 4.18045L5.73072 7.03006C4.91907 7.8417 4.91914 9.15783 5.73072 9.96951C6.54241 10.781 7.85856 10.7811 8.67017 9.96951L11.5198 7.1199C11.8127 6.82714 12.2875 6.82714 12.5803 7.1199C12.873 7.41277 12.873 7.88761 12.5803 8.18045L9.73072 11.0301C8.33332 12.4275 6.06765 12.4273 4.67017 11.0301C3.2728 9.63259 3.27274 7.36694 4.67017 5.96951L7.51978 3.1199Z" fill="black"/>
</g>
<defs>
<clipPath id="clip0_10274_6">
<rect width="16" height="16" fill="white"/>
</clipPath>
</defs>
</svg>

<svg xmlns="http://www.w3.org/2000/svg" width="16" height="16" viewBox="0 0 16 16"><path d="M0 0h16v16H0Z"/><path d="M5.52 1.12a3.578 3.578 0 0 1 6.078 2.98 3.578 3.578 0 0 1 2.982 6.08l-3.292 3.293a.252.252 0 0 0 0 .354l.843.843a.749.749 0 1 1-1.06 1.06l-.844-.843a1.75 1.75 0 0 1 0-2.474L13.52 9.12a2.08 2.08 0 0 0 0-2.94 2.08 2.08 0 0 0-2.94 0L7.731 9.03A.75.75 0 0 1 6.67 7.97l2.85-2.85a2.08 2.08 0 0 0 0-2.94 2.08 2.08 0 0 0-2.94 0l-4.799 4.8A.75.75 0 0 1 .72 5.92Z"/><path d="M7.52 3.12a.749.749 0 1 1 1.06 1.06L5.731 7.03A2.079 2.079 0 0 0 8.67 9.97l2.85-2.85a.749.749 0 1 1 1.06 1.06l-2.849 2.85A3.578 3.578 0 0 1 4.67 5.97Z"/></svg>
